!!!OTL: Die verkaufte Muellerin Es wollt ein Muellerlein frueh aufstehn,
!!!ARE: Europa, Osteuropa, UdSSR, Bessarabien
!!!YOR: 4, S. 342
!!    ????
!!!SCT: Q0086Q
!!!YEM: Copyright 1995, estate of Helmut Schaffrath.
**kern
*ICvox
*Ivox
*M4/4
*k[f#]
*G:
{8d
=1
4g
4d
4g
8d
8d
=2
4b
4a
4g}
{4d
=3
4g
4d
4g
4d
=4
4b
4a
4g
8r}
{8b
=5
4cc
4b
4a
4g
=6
4b
4dd
4a
8r}
{8dd
=7
4ee
4dd
4cc
4b
=8
4a
4cc
4b
8r}
==
!!!AGN: Ballade, Menschenhandel, Rettung, Hinrichtung
!!!ONB: ESAC (Essen Associative Code) Database: BALLADE
!!!AMT: simple quadruple
!!!AIN: vox
!!!EED: Helmut Schaffrath
!!!EEV: 1.0
*-
